public/library/arbiscan-text-light.svg

<svg width="733" height="138" viewBox="0 0 733 138" fill="none" xmlns="http://www.w3.org/2000/svg">
<path d="M203.64 44.2C205.262 44.2 206.627 44.5413 207.736 45.224C208.846 45.864 209.934 47.144 211 49.064L232.184 87.528C232.398 87.9547 232.44 88.3173 232.312 88.616C232.227 88.872 231.928 89 231.416 89H223.288C222.563 89 222.072 88.7227 221.816 88.168L217.272 79.912H187.192L182.776 88.168C182.478 88.7227 181.987 89 181.304 89H172.984C172.43 89 172.088 88.872 171.96 88.616C171.875 88.3173 171.939 87.9547 172.152 87.528L193.144 49.064C194.211 47.144 195.256 45.864 196.28 45.224C197.304 44.5413 198.499 44.2 199.864 44.2H203.64ZM191.224 72.488H213.24L203.064 53.736C202.894 53.4373 202.659 53.288 202.36 53.288H201.976C201.678 53.288 201.443 53.4373 201.272 53.736L191.224 72.488Z" fill="#2D374B"/>
<path d="M293.087 44.2C297.994 44.2 301.514 45.3093 303.647 47.528C305.781 49.7467 306.847 53.032 306.847 57.384V61.032C306.847 64.7013 306.101 67.6027 304.607 69.736C303.114 71.8693 300.682 73.2347 297.311 73.832L308.255 87.4C308.469 87.6133 308.533 87.9333 308.447 88.36C308.362 88.7867 308.021 89 307.423 89H299.167C298.613 89 298.229 88.936 298.015 88.808C297.802 88.68 297.589 88.4667 297.375 88.168L287.263 74.856H266.591V87.592C266.591 88.5307 266.122 89 265.183 89H258.271C257.29 89 256.799 88.5307 256.799 87.592V46.12C256.799 44.84 257.439 44.2 258.719 44.2H293.087ZM266.591 67.048H291.103C293.279 67.048 294.815 66.5787 295.711 65.64C296.607 64.7013 297.055 63.272 297.055 61.352V58.664C297.055 56.744 296.607 55.3147 295.711 54.376C294.815 53.4373 293.279 52.968 291.103 52.968H267.423C266.869 52.968 266.591 53.224 266.591 53.736V67.048Z" fill="#2D374B"/>
<path d="M372.721 44.2C377.116 44.2 380.23 45.0747 382.065 46.824C383.942 48.5733 384.881 51.2187 384.881 54.76V57.832C384.881 61.416 383.516 64.1253 380.785 65.96C383.729 67.6667 385.201 70.4187 385.201 74.216V77.928C385.201 79.6347 385.009 81.1707 384.625 82.536C384.241 83.9013 383.601 85.0747 382.705 86.056C381.852 86.9947 380.7 87.72 379.249 88.232C377.798 88.744 376.006 89 373.873 89H335.857C334.577 89 333.937 88.36 333.937 87.08V46.12C333.937 44.84 334.577 44.2 335.857 44.2H372.721ZM343.729 69.8V79.336C343.729 79.8907 344.006 80.168 344.561 80.168H370.801C372.508 80.168 373.724 79.8693 374.449 79.272C375.174 78.632 375.537 77.6293 375.537 76.264V73.832C375.537 72.5093 375.132 71.5067 374.321 70.824C373.553 70.1413 372.102 69.8 369.969 69.8H343.729ZM343.729 62.824H369.969C372.102 62.824 373.553 62.504 374.321 61.864C375.089 61.224 375.473 60.2853 375.473 59.048V56.872C375.473 55.5493 375.089 54.5893 374.321 53.992C373.596 53.352 372.401 53.032 370.737 53.032H344.561C344.006 53.032 343.729 53.3093 343.729 53.864V62.824Z" fill="#2D374B"/>
<path d="M420.333 44.2C421.272 44.2 421.741 44.6693 421.741 45.608V87.592C421.741 88.5307 421.272 89 420.333 89H413.421C412.44 89 411.949 88.5307 411.949 87.592V45.608C411.949 44.6693 412.44 44.2 413.421 44.2H420.333Z" fill="#2D374B"/>
<path d="M493.942 44.2C494.881 44.2 495.35 44.6693 495.35 45.608V51.688C495.35 52.6267 494.881 53.096 493.942 53.096H461.878C460.641 53.096 459.766 53.416 459.254 54.056C458.742 54.696 458.486 55.5707 458.486 56.68V58.856C458.486 61.2453 459.595 62.44 461.814 62.44H485.814C489.526 62.44 492.321 63.4 494.198 65.32C496.075 67.1973 497.014 69.9067 497.014 73.448V78.568C497.014 81.6827 496.097 84.2 494.262 86.12C492.427 88.04 489.569 89 485.686 89H450.23C449.249 89 448.758 88.5307 448.758 87.592V81.512C448.758 80.5733 449.249 80.104 450.23 80.104H483.83C485.067 80.104 485.942 79.784 486.454 79.144C486.966 78.504 487.222 77.6293 487.222 76.52V73.896C487.222 71.5067 486.113 70.312 483.894 70.312H459.894C456.182 70.312 453.387 69.3733 451.51 67.496C449.633 65.576 448.694 62.8453 448.694 59.304V54.632C448.694 51.5173 449.611 49 451.446 47.08C453.281 45.16 456.139 44.2 460.022 44.2H493.942Z" fill="#2D374B"/>
<path d="M569.809 44.2C570.748 44.2 571.217 44.6693 571.217 45.608V51.88C571.217 52.8613 570.748 53.352 569.809 53.352H541.329C539.665 53.352 538.278 53.5013 537.169 53.8C536.102 54.056 535.249 54.5253 534.609 55.208C533.969 55.848 533.5 56.7227 533.201 57.832C532.945 58.9413 532.817 60.3493 532.817 62.056V71.144C532.817 72.8507 532.945 74.28 533.201 75.432C533.5 76.5413 533.969 77.4373 534.609 78.12C535.249 78.76 536.102 79.2293 537.169 79.528C538.278 79.784 539.665 79.912 541.329 79.912H569.809C570.748 79.912 571.217 80.3813 571.217 81.32V87.592C571.217 88.5307 570.748 89 569.809 89H540.945C537.702 89 534.95 88.7013 532.689 88.104C530.428 87.5067 528.572 86.5467 527.121 85.224C525.713 83.8587 524.668 82.1093 523.985 79.976C523.345 77.8 523.025 75.176 523.025 72.104V61.096C523.025 58.024 523.345 55.4213 523.985 53.288C524.668 51.1547 525.713 49.4267 527.121 48.104C528.572 46.7387 530.428 45.7573 532.689 45.16C534.95 44.52 537.702 44.2 540.945 44.2H569.809Z" fill="#2D374B"/>
<path d="M625.653 44.2C627.274 44.2 628.64 44.5413 629.749 45.224C630.858 45.864 631.946 47.144 633.013 49.064L654.197 87.528C654.41 87.9547 654.453 88.3173 654.325 88.616C654.24 88.872 653.941 89 653.429 89H645.301C644.576 89 644.085 88.7227 643.829 88.168L639.285 79.912H609.205L604.789 88.168C604.49 88.7227 604 89 603.317 89H594.997C594.442 89 594.101 88.872 593.973 88.616C593.888 88.3173 593.952 87.9547 594.165 87.528L615.157 49.064C616.224 47.144 617.269 45.864 618.293 45.224C619.317 44.5413 620.512 44.2 621.877 44.2H625.653ZM613.237 72.488H635.253L625.077 53.736C624.906 53.4373 624.672 53.288 624.373 53.288H623.989C623.69 53.288 623.456 53.4373 623.285 53.736L613.237 72.488Z" fill="#2D374B"/>
<path d="M690.204 44.2C691.228 44.2 692.081 44.2427 692.764 44.328C693.447 44.4133 694.044 44.6053 694.556 44.904C695.068 45.16 695.559 45.544 696.028 46.056C696.497 46.5253 697.031 47.1653 697.628 47.976L721.436 79.208C721.607 79.5067 721.884 79.656 722.268 79.656H722.844C723.185 79.656 723.356 79.4427 723.356 79.016V45.608C723.356 44.6693 723.825 44.2 724.764 44.2H731.484C732.423 44.2 732.892 44.6693 732.892 45.608V82.344C732.892 84.9467 732.423 86.7173 731.484 87.656C730.545 88.552 729.095 89 727.132 89H721.628C720.647 89 719.815 88.9574 719.132 88.872C718.492 88.7867 717.916 88.616 717.404 88.36C716.892 88.104 716.38 87.7413 715.868 87.272C715.399 86.76 714.844 86.0773 714.204 85.224L690.332 53.992C690.076 53.6933 689.799 53.544 689.5 53.544H688.924C688.583 53.544 688.412 53.7573 688.412 54.184V87.592C688.412 88.5307 687.943 89 687.004 89H680.284C679.303 89 678.812 88.5307 678.812 87.592V50.856C678.812 48.2533 679.281 46.504 680.22 45.608C681.159 44.6693 682.609 44.2 684.572 44.2H690.204Z" fill="#2D374B"/>
<g clip-path="url(#clip0_1818_43)">
<path d="M4.63379 41.9559V96.0768C4.63379 99.5104 6.46102 102.715 9.46289 104.416L56.1877 131.46C59.1569 133.193 62.844 133.193 65.8132 131.46L112.571 104.416C115.54 102.682 117.4 99.5104 117.4 96.0768V41.9559C117.4 38.5223 115.573 35.3175 112.571 33.5844L65.8132 6.54028C62.844 4.80711 59.1569 4.80711 56.1877 6.54028L9.43026 33.5844C6.49364 35.3175 4.63379 38.4896 4.63379 41.9559Z" fill="#213147"/>
<path d="M71.2293 79.4972L64.5404 97.81C64.3446 98.3005 64.3446 98.8891 64.5404 99.3796L75.9932 130.904L89.2732 123.219L73.3502 79.4645C72.9913 78.4834 71.5883 78.4834 71.2293 79.4972Z" fill="#12AAFF"/>
<path d="M84.5743 48.6597C84.2153 47.646 82.8123 47.646 82.4207 48.6597L75.7318 66.9725C75.536 67.4957 75.536 68.0517 75.7318 68.5422L94.5261 120.178L107.806 112.493L84.5743 48.6597Z" fill="#12AAFF"/>
<path d="M61.0163 8.53507C61.3426 8.53507 61.6689 8.63318 61.9626 8.79668L112.538 38.0645C113.125 38.3915 113.484 39.0128 113.484 39.6995V98.2351C113.484 98.9218 113.125 99.5431 112.538 99.8701L61.9626 129.171C61.6689 129.334 61.3426 129.432 61.0163 129.432C60.69 129.432 60.3637 129.334 60.0701 129.171L9.49505 99.9028C8.90773 99.5758 8.54881 98.9545 8.54881 98.2678V39.6995C8.54881 39.0128 8.90773 38.3915 9.49505 38.0645L60.0701 8.79668C60.3637 8.63318 60.69 8.53507 61.0163 8.53507ZM61.0163 0C59.2217 0 57.3945 0.490521 55.7957 1.40616L5.22065 30.6739C2.023 32.5379 0 35.9716 0 39.6995V98.2351C0 101.963 1.99037 105.429 5.22065 107.293L55.7957 136.561C57.3945 137.509 59.1891 137.967 61.0163 137.967C62.8435 137.967 64.6381 137.477 66.237 136.561L116.812 107.293C120.042 105.429 122.033 101.996 122.033 98.2351V39.6995C122.033 35.9716 120.042 32.5052 116.812 30.6412L66.237 1.40616C64.6055 0.490521 62.8109 0 61.0163 0Z" fill="#9DCCED"/>
<path d="M27.5713 120.243L32.2372 107.49L41.5692 115.272L32.8572 123.284L27.5713 120.243Z" fill="#213147"/>
<path d="M56.7424 35.5464H43.9192C42.9729 35.5464 42.0919 36.1351 41.7656 37.0507L14.292 112.591L27.572 120.276L57.8518 37.0834C58.1128 36.3313 57.5581 35.5464 56.7424 35.5464Z" fill="white"/>
<path d="M79.1916 35.5464H66.3684C65.4222 35.5464 64.5412 36.1351 64.2149 37.0507L32.8584 123.284L46.1384 130.969L80.2684 37.0834C80.5621 36.3313 79.9747 35.5464 79.1916 35.5464Z" fill="white"/>
</g>
<defs>
<clipPath id="clip0_1818_43">
<rect width="122" height="138" fill="white"/>
</clipPath>
</defs>
</svg>

<svg xmlns="http://www.w3.org/2000/svg" width="733" height="138" fill="none" viewBox="0 0 733 138"><path fill="#2d374b" d="M203.64 44.2q2.433 0 4.096 1.024 1.665.96 3.264 3.84l21.184 38.464q.32.64.128 1.088-.128.384-.896.384h-8.128q-1.088 0-1.472-.832l-4.544-8.256h-30.08l-4.416 8.256q-.447.832-1.472.832h-8.32q-.832 0-1.024-.384-.128-.448.192-1.088l20.992-38.464q1.6-2.88 3.136-3.84 1.536-1.024 3.584-1.024zm-12.416 28.288h22.016l-10.176-18.752q-.255-.448-.704-.448h-.384q-.447 0-.704.448zM293.087 44.2q7.36 0 10.56 3.328t3.2 9.856v3.648q0 5.504-2.24 8.704t-7.296 4.096L308.255 87.4q.321.32.192.96-.127.64-1.024.64h-8.256q-.831 0-1.152-.192t-.64-.64l-10.112-13.312h-20.672v12.736q0 1.408-1.408 1.408h-6.912q-1.472 0-1.472-1.408V46.12q0-1.92 1.92-1.92zm-26.496 22.848h24.512q3.264 0 4.608-1.408t1.344-4.288v-2.688q0-2.88-1.344-4.288t-4.608-1.408h-23.68q-.832 0-.832.768zM372.721 44.2q6.592 0 9.344 2.624 2.816 2.625 2.816 7.936v3.072q0 5.376-4.096 8.128 4.416 2.56 4.416 8.256v3.712q0 2.56-.576 4.608t-1.92 3.52q-1.28 1.408-3.456 2.176t-5.376.768h-38.016q-1.92 0-1.92-1.92V46.12q0-1.92 1.92-1.92zm-28.992 25.6v9.536q0 .832.832.832h26.24q2.56 0 3.648-.896 1.088-.96 1.088-3.008v-2.432q0-1.984-1.216-3.008-1.152-1.024-4.352-1.024zm0-6.976h26.24q3.2 0 4.352-.96t1.152-2.816v-2.176q0-1.984-1.152-2.88-1.088-.96-3.584-.96h-26.176q-.832 0-.832.832zM420.333 44.2q1.408 0 1.408 1.408v41.984q0 1.408-1.408 1.408h-6.912q-1.472 0-1.472-1.408V45.608q0-1.408 1.472-1.408zM493.942 44.2q1.408 0 1.408 1.408v6.08q0 1.408-1.408 1.408h-32.064q-1.856 0-2.624.96t-.768 2.624v2.176q0 3.585 3.328 3.584h24q5.568 0 8.384 2.88 2.816 2.816 2.816 8.128v5.12q0 4.672-2.752 7.552T485.686 89H450.23q-1.472 0-1.472-1.408v-6.08q0-1.408 1.472-1.408h33.6q1.856 0 2.624-.96t.768-2.624v-2.624q0-3.585-3.328-3.584h-24q-5.568 0-8.384-2.816-2.816-2.88-2.816-8.192v-4.672q0-4.672 2.752-7.552t8.576-2.88zM569.809 44.2q1.408 0 1.408 1.408v6.272q0 1.472-1.408 1.472h-28.48q-2.496 0-4.16.448-1.6.384-2.56 1.408-.96.96-1.408 2.624-.384 1.664-.384 4.224v9.088q0 2.56.384 4.288.448 1.664 1.408 2.688.96.96 2.56 1.408 1.664.384 4.16.384h28.48q1.408 0 1.408 1.408v6.272q0 1.408-1.408 1.408h-28.864q-4.865 0-8.256-.896-3.391-.895-5.568-2.88-2.112-2.048-3.136-5.248-.96-3.264-.96-7.872V61.096q0-4.608.96-7.808 1.024-3.2 3.136-5.184 2.177-2.048 5.568-2.944 3.392-.96 8.256-.96zM625.653 44.2q2.432 0 4.096 1.024 1.664.96 3.264 3.84l21.184 38.464q.32.64.128 1.088-.128.384-.896.384h-8.128q-1.088 0-1.472-.832l-4.544-8.256h-30.08l-4.416 8.256q-.448.832-1.472.832h-8.32q-.832 0-1.024-.384-.128-.448.192-1.088l20.992-38.464q1.6-2.88 3.136-3.84 1.536-1.024 3.584-1.024zm-12.416 28.288h22.016l-10.176-18.752q-.256-.448-.704-.448h-.384q-.448 0-.704.448zM690.204 44.2q1.536 0 2.56.128 1.024.127 1.792.576.768.384 1.472 1.152.704.705 1.6 1.92l23.808 31.232q.256.448.832.448h.576q.512 0 .512-.64V45.608q0-1.408 1.408-1.408h6.72q1.408 0 1.408 1.408v36.736q0 3.904-1.408 5.312Q730.076 89 727.132 89h-5.504q-1.471 0-2.496-.128a5.5 5.5 0 0 1-1.728-.512 6.8 6.8 0 0 1-1.536-1.088q-.704-.768-1.664-2.048l-23.872-31.232q-.384-.448-.832-.448h-.576q-.512 0-.512.64v33.408q0 1.408-1.408 1.408h-6.72q-1.472 0-1.472-1.408V50.856q0-3.904 1.408-5.248 1.408-1.408 4.352-1.408z"/><g clip-path="url(#a)"><path fill="#213147" d="M4.634 41.956v54.12c0 3.434 1.827 6.639 4.829 8.34l46.725 27.044a9.56 9.56 0 0 0 9.625 0l46.758-27.044c2.969-1.734 4.829-4.906 4.829-8.34v-54.12a9.67 9.67 0 0 0-4.829-8.372L65.813 6.54a9.56 9.56 0 0 0-9.625 0L9.43 33.584a9.74 9.74 0 0 0-4.796 8.372"/><path fill="#12aaff" d="M71.23 79.497 64.54 97.81a2.17 2.17 0 0 0 0 1.57l11.453 31.524 13.28-7.685L73.35 79.465c-.359-.982-1.762-.982-2.12.032M84.574 48.66c-.359-1.014-1.762-1.014-2.153 0l-6.69 18.313a2.17 2.17 0 0 0 0 1.57l18.795 51.635 13.28-7.685z"/><path fill="#9dcced" d="M61.016 8.535c.327 0 .653.098.947.262l50.575 29.268c.587.327.946.948.946 1.635v58.535c0 .687-.359 1.308-.946 1.635l-50.575 29.301c-.294.163-.62.261-.947.261s-.652-.098-.946-.261L9.495 99.903a1.86 1.86 0 0 1-.946-1.635V39.7c0-.687.359-1.309.946-1.636L60.07 8.798c.294-.164.62-.262.946-.262m0-8.535c-1.794 0-3.621.49-5.22 1.406L5.22 30.674C2.023 32.538 0 35.972 0 39.7v58.535c0 3.728 1.99 7.194 5.22 9.058l50.576 29.268c1.599.948 3.393 1.406 5.22 1.406a10.5 10.5 0 0 0 5.221-1.406l50.575-29.268a10.43 10.43 0 0 0 5.221-9.058V39.7a10.47 10.47 0 0 0-5.221-9.059L66.237 1.406C64.606.491 62.811 0 61.017 0"/><path fill="#213147" d="m27.571 120.243 4.666-12.753 9.332 7.782-8.712 8.012z"/><path fill="#fff" d="M56.742 35.546H43.92c-.946 0-1.827.59-2.153 1.505l-27.474 75.54 13.28 7.685 30.28-83.193a1.158 1.158 0 0 0-1.11-1.537M79.192 35.546H66.368c-.946 0-1.827.59-2.153 1.505l-31.357 86.233 13.28 7.685 34.13-93.886c.294-.752-.293-1.537-1.076-1.537"/></g><defs><clipPath id="a"><path fill="#fff" d="M0 0h122v138H0z"/></clipPath></defs></svg>
